app/assets/images/icons/exit.svg

<svg width="33" height="33" viewBox="0 0 33 33" fill="none" xmlns="http://www.w3.org/2000/svg">
<g clip-path="url(#clip0_35_286)">
<path d="M16.5 3.4375C17.047 3.4375 17.5716 3.6548 17.9584 4.04159C18.3452 4.42839 18.5625 4.95299 18.5625 5.5C18.5625 6.04701 18.3452 6.57161 17.9584 6.95841C17.5716 7.3452 17.047 7.5625 16.5 7.5625H9.625C9.44266 7.5625 9.2678 7.63493 9.13886 7.76386C9.00993 7.8928 8.9375 8.06766 8.9375 8.25V24.75C8.9375 24.9323 9.00993 25.1072 9.13886 25.2361C9.2678 25.3651 9.44266 25.4375 9.625 25.4375H15.8125C16.3595 25.4375 16.8841 25.6548 17.2709 26.0416C17.6577 26.4284 17.875 26.953 17.875 27.5C17.875 28.047 17.6577 28.5716 17.2709 28.9584C16.8841 29.3452 16.3595 29.5625 15.8125 29.5625H9.625C8.34865 29.5625 7.12457 29.0555 6.22205 28.153C5.31953 27.2504 4.8125 26.0264 4.8125 24.75V8.25C4.8125 6.97365 5.31953 5.74957 6.22205 4.84705C7.12457 3.94453 8.34865 3.4375 9.625 3.4375H16.5ZM24.8325 11.1512L28.7224 15.0425C29.1086 15.4292 29.3256 15.9534 29.3256 16.5C29.3256 17.0466 29.1086 17.5708 28.7224 17.9575L24.8339 21.8488C24.447 22.2357 23.9222 22.453 23.375 22.453C22.8278 22.453 22.303 22.2357 21.9161 21.8488C21.5292 21.4618 21.3118 20.9371 21.3118 20.3899C21.3118 19.8427 21.5292 19.3179 21.9161 18.931L22.2846 18.5625H16.5C15.953 18.5625 15.4284 18.3452 15.0416 17.9584C14.6548 17.5716 14.4375 17.047 14.4375 16.5C14.4375 15.953 14.6548 15.4284 15.0416 15.0416C15.4284 14.6548 15.953 14.4375 16.5 14.4375H22.2846L21.9161 14.069C21.7246 13.8774 21.5728 13.65 21.4692 13.3997C21.3656 13.1494 21.3123 12.8812 21.3123 12.6103C21.3124 12.3395 21.3658 12.0712 21.4695 11.821C21.5732 11.5708 21.7252 11.3434 21.9168 11.1519C22.1084 10.9604 22.3358 10.8086 22.5861 10.705C22.8364 10.6014 23.1046 10.5481 23.3755 10.5481C23.6464 10.5482 23.9146 10.6016 24.1648 10.7053C24.415 10.8091 24.6424 10.961 24.8339 11.1526L24.8325 11.1512Z" fill="#4A2D24"/>
</g>
<defs>
<clipPath id="clip0_35_286">
<rect width="33" height="33" fill="white"/>
</clipPath>
</defs>
</svg>

<svg xmlns="http://www.w3.org/2000/svg" width="33" height="33" fill="none"><g clip-path="url(#a)"><path fill="#4A2D24" d="M16.5 3.438a2.063 2.063 0 0 1 0 4.124H9.625a.69.69 0 0 0-.687.688v16.5a.687.687 0 0 0 .687.688h6.188a2.062 2.062 0 0 1 0 4.125H9.625a4.813 4.813 0 0 1-4.812-4.813V8.25a4.813 4.813 0 0 1 4.812-4.812zm8.333 7.713 3.89 3.892a2.063 2.063 0 0 1 0 2.915l-3.89 3.89a2.063 2.063 0 0 1-2.917-2.917l.369-.369H16.5a2.062 2.062 0 0 1 0-4.125h5.785l-.369-.368a2.062 2.062 0 0 1 2.918-2.916z"/></g><defs><clipPath id="a"><path fill="#fff" d="M0 0h33v33H0z"/></clipPath></defs></svg>
